X:885
T:Doon, The
R:reel
Z:transcribed by Dave Marshall
M:C|
K:Dmix
| F3A G~E3 | F2DF ABAG | F3A G~E3 | ABGE FDDE |
F3A G~E3 | F2DF ABAG | F3A G~E3 | ABGE FDD2 |
| d4 dcAB | AGFG ABcA | d2fd dcAB | cABA G4 |
Adde dcAB | AGFG AB^cA | d2fd Adfd | d2fd dcAG |
